X:1
T:Mi General, Augusto Pinochet
T:Mi General, Augusto Pinochet
L:1/8
Q:3/8=138
M:6/8
K:G
V:1 treble nm="Piano" snm="Pno."
V:1
 z2 B, E2 F | G3- G2 F | A2 G F2 G | E6- | E3 E2 F | G3 E2 F | G2 B A2 G | A3 F3- | F2 F F2 G | %9
w: Mi ge- ne-|ral, _ Au-|gus- to Pi- no-|chet,|_ ¡Le sa-|lu- da su|pueb- lo tan que-|ri- do!|_ Fue'n es- ta-|
 A3 A2 B | c3 A2 G | F6- | F2 F F2 G | A3 A2 B | c2 B d2 c | B6- | B2 B, E2 F | G3- G2 F | %18
w: dis- ta'n, gran|li- ber- ta-|dor,|_ ¡Fue pre- si-|den- te de|nues- tra gran na-|ción!|_ Mi ge- ne-|ral, _ Au-|
 A2 G F2 G | E6- | E2 F G2 A | B3 B3 | B2 d c2 B | c6- | c3/2e3/2 e3/2e3/2 | e3 c3- | %26
w: gus- to Pi- no-|chet,|_ ¡Es- tá s'i-|ma- gen|en ca- da'u- ni-|dad!|_ ¡Hoy sus sol-|da- dos,|
 c3/2e3/2 e3/2e3/2 | e3 B3- | B2 B d2 c | B3 F2 G | A3 G2 A | B6- | B3/2e3/2 e3/2e3/2 | e3 c3- | %34
w: _ mar- chan con-|ten- tos!|_ ¡Con ga- llar-|dí- a, con|gran le- al-|tad!|_ ¡Hoy sus sol-|da- dos,|
 c3/2e3/2 e3/2e3/2 | e3 B3- | B2 B d2 c | B3 F2 G | A3 G2 F | E6- | E2 |] %41
w: _ mar- chan con-|ten- tos!|_ ¡Con ga- llar-|dí- a, con|gran le- al-|tad!|_|

